X:1
T:Title
%%score { ( 1 3 ) | ( 2 4 ) }
L:1/8
Q:1/4=100
M:3/4
K:F
V:1 treble nm="Grand Piano"
V:3 treble 
V:2 bass 
V:4 bass 
V:1
 A2 A2 A2 | c>B z2 B,2 | G2 G2 G2 | B>A z2 C2 | A2 G2 F2 | z2 E4 | G2 F2 D2 | D>C z2 A,2 | %8
w: G.~Verdi * *||||||||
 G>A G2 G2 | z2 G4 | A>B A2 A2 | z2 A4 | c>d c2 c2 | d4 c2 | [CGB]2 [CFA]2 [B,EG]2 | %15
w: |||||||
[M:2/4] [A,F]4 |[M:1/4] C>c |[M:3/4] c4 z2 | c4 z2 | [DGB]2 [CFA]2 [B,EG]2 | [A,F]6 | c6- | c6 | %23
w: ||||||||
 c6- | c4 z2 | e>d c>B [CA]>G | F4 [FAcf]2 |] %27
w: ||||
V:2
 F,,2 [F,A,C]2 [F,A,C]2 | C,2 [E,G,B,]2 [E,G,]2 | C,2 [E,G,B,]2 [E,G,B,]2 | F,,2 [F,A,C]2 [F,A,]2 | %4
 F,,2 [F,A,C]2 [F,A,C]2 | C,2 [E,G,B,]2 [E,G,]2 | C,2 [E,G,B,]2 [E,G,B,]2 | %7
 F,,2 [C,F,A,]2 [C,F,]2 | =B,,2 [D,F,G,]2 [D,F,G,]2 | C,2 [E,G,]2 E,2 | ^C,2 [E,G,A,]2 [E,G,A,]2 | %11
 D,2 [F,A,]2 F,2 | E,2 [G,B,C]2 [G,B,C]2 | [F,A,DF]4 [F,A,CF]2 | B,,2 C,2 C,2 |[M:2/4] F,4 | %16
[M:1/4] z2 |[M:3/4] [C,E,G,]2 [C,E,]2 z2 | [F,A,]2 F,2[K:treble] C>c | B,,2 C,2 C,2 | F,6 | %21
 [C,B,]2 [C,B,]2 z2 | [F,A,]2 [F,A,]2 z2 | [C,B,]2 [C,B,]2 z2 | [F,A,]4 [F,A,F]2 | %25
 [C,B,]2 G,>C z z/ B,/ | [F,A,]4 [F,,F,]2 |] %27
V:3
 x6 | z2 G4 | x6 | z2 F4 | x6 | F>E z2 B,2 | x6 | z2 C4 | x6 | c2 z2 G,2 | x6 | d2 z2 A,2 | x6 | %13
 x6 | x6 |[M:2/4] x4 |[M:1/4] x2 |[M:3/4] z2 G,2 C>c | z2 A,2 z2 | x6 | x6 | E2 E2 z2 | F2 F2 z2 | %23
 E2 E2 z2 | F4 ^c2 | E2 E2 E2 | x6 |] %27
V:4
 x6 | x6 | x6 | x6 | x6 | x6 | x6 | x6 | x6 | x6 | x6 | x6 | x6 | x6 | x6 |[M:2/4] x4 |[M:1/4] x2 | %17
[M:3/4] x6 | x4[K:treble] x2 | x6 | x6 | x6 | x6 | x6 | x6 | z2 C,2 C,2 | x6 |] %27

